**kern
*staff1
!!pagebreak:original
*I"P1
=1-
*clefG2
*k[b-e-a-]
*M2/4
[2bb-\
=2
8bb-\L]
8ccc\
8bb-\
8aa-\J
=3
8aa-\L
8gg\
8ff\
8ee-\J
=4
8ee-\L
8dd\
8cc\
8dd\J
=5
8ff\L
8ee-\
8b-\
8g\J
=6
8dd/L
8cc/
8a-/
8f/J
=7
8cc/L
8b-/
8g/
8e-/J
=8
8B-/
=
*-
